src/svg/Social_Instagram_16.svg

<?xml version="1.0" encoding="UTF-8"?>
<svg width="16px" height="16px" viewBox="0 0 16 16" version="1.1" xmlns="http://www.w3.org/2000/svg" xmlns:xlink="http://www.w3.org/1999/xlink">
    <!-- Generator: Sketch 56.3 (81716) - https://sketch.com -->
    <title>Icons/Social/Instagram/16</title>
    <desc>Created with Sketch.</desc>
    <g id="Icons/Social/Instagram/16" stroke="none" stroke-width="1" fill="none" fill-rule="evenodd">
        <path d="M4,2 L12,2 C13.1045695,2 14,2.8954305 14,4 L14,12 C14,13.1045695 13.1045695,14 12,14 L4,14 C2.8954305,14 2,13.1045695 2,12 L2,4 C2,2.8954305 2.8954305,2 4,2 Z M4,2.75 C3.30964406,2.75 2.75,3.30964406 2.75,4 L2.75,12 C2.75,12.6903559 3.30964406,13.25 4,13.25 L12,13.25 C12.6903559,13.25 13.25,12.6903559 13.25,12 L13.25,4 C13.25,3.30964406 12.6903559,2.75 12,2.75 L4,2.75 Z M8,11 C6.34314575,11 5,9.65685425 5,8 C5,6.34314575 6.34314575,5 8,5 C9.65685425,5 11,6.34314575 11,8 C11,9.65685425 9.65685425,11 8,11 Z M8,10.25 C9.24264069,10.25 10.25,9.24264069 10.25,8 C10.25,6.75735931 9.24264069,5.75 8,5.75 C6.75735931,5.75 5.75,6.75735931 5.75,8 C5.75,9.24264069 6.75735931,10.25 8,10.25 Z M11.25,5.5 C10.8357864,5.5 10.5,5.16421356 10.5,4.75 C10.5,4.33578644 10.8357864,4 11.25,4 C11.6642136,4 12,4.33578644 12,4.75 C12,5.16421356 11.6642136,5.5 11.25,5.5 Z" id="Combined-Shape" fill="#000000" fill-rule="nonzero"></path>
    </g>
</svg>

<svg viewBox="0 0 16 16"><path d="M4 2h8a2 2 0 012 2v8a2 2 0 01-2 2H4a2 2 0 01-2-2V4a2 2 0 012-2zm0 .75c-.69 0-1.25.56-1.25 1.25v8c0 .69.56 1.25 1.25 1.25h8c.69 0 1.25-.56 1.25-1.25V4c0-.69-.56-1.25-1.25-1.25H4zM8 11a3 3 0 110-6 3 3 0 010 6zm0-.75a2.25 2.25 0 100-4.5 2.25 2.25 0 000 4.5zm3.25-4.75a.75.75 0 110-1.5.75.75 0 010 1.5z" fill-rule="nonzero"/></svg>
